X:1
T:In the City Where the the Lamb Is the Light
T:In the City Where the the Lamb Is the Light
T:Robert Emmett Winsett
T:Herbert Emery Buffum, 1922
T:Public Domain Courtesy of the Cyber Hymnal™
T:Public Domain Courtesy of the Cyber Hymnal™
C:Robert Emmett Winsett
Z:Public Domain
Z:Courtesy of the Cyber Hymnal™
%%score ( 1 2 ) ( 3 4 )
L:1/8
Q:1/4=105
M:4/4
K:Bb
V:1 treble 
V:2 treble 
V:3 bass 
V:4 bass 
V:1
 [DF][EG] | [Dd][Dd][Dd][Dd] [Dd][DF][EG][EA] | [DB]6 [FB]>[FB] | %3
w: 1.~There’s a|count- ry far be- yond the star- ry|sky, There’s a|
w: 2.~Here we|have our days of sun- shine, but we|know That the|
w: 3.~There the|flow- ers bloom for- ev- er and the|day Shall be|
w: 4.~Here we|have our dis- ap- point- ments all the|while, And our|
w: 5.~Then let|sun- light fade, let twi- light bring its|gloom, Not a|
 [Fc][Fc][Fc][Fc] [Fc][Fc][DB][Fc] | [Fd]6 [Fd][Fc] | [GB][GB][GB][GB] [Gc][GB][EG][EB] | %6
w: ci- ty where there nev- er comes a|night; If we’re|faith- ful we shall go there by and|
w: sun which shines up- on us now so|bright Will be|changed to clouds and rain un- til we|
w: one e- ter- nal day with- out a|night; And our|tears shall be for- ev- er wiped a-|
w: fond- est hopes but meet with bit- ter|blight; Tho’ by|night we weep, the morn- ing brings a|
w: sha- dow can my bliss- ful soul af-|fright; For I|know that up in Heav- en there is|
 [DF]6 [DF][DF] | [EG]<[GB] [Gc][Gc] [FB]2 [EA][EA] | [DB]6 ||"^Refrain" [Fd]>[Fe] | %10
w: by, ’Tis the|ci- ty where the Lamb is the|light.||
w: go To the|ci- ty where the Lamb is the|light.||
w: way, In that|ci- ty where the Lamb is the|light.|In that|
w: smile, In that|ci- ty where the Lamb is the|light.||
w: room, In that|ci- ty where the Lamb is the|light.||
 [Bf]<[Bf] [Fd][Ec] [DB]2 [EG][EA] | B6 [Fd]2 | [Bf]<[Bf] [Fd][Fc] [FB]2 [Fd][Fd] | c6 [Fd][Fc] | %14
w: ||||
w: ||||
w: ci- ty where the Lamb is the|light, The|ci- ty where there com- eth no|night; I’ve a|
w: ||||
w: ||||
 [EB][Ec][EB][EG] [GB]2 [GB][EG] | [DF][EG][DF][B,D] [DF]2 [DF][DF] | %16
w: ||
w: ||
w: man- sion o- ver there, And when|free from toil and care, I am|
w: ||
w: ||
 [EG]<[GB] [Gc][Gc] [FB]2 [EA][EA] | [DB]6 |] %18
w: ||
w: ||
w: go- ing where the Lamb is the|light.|
w: ||
w: ||
V:2
 x2 | x8 | x8 | x8 | x8 | x8 | x8 | x8 | x6 || x2 | x8 | (D2 (3EEE D2) x2 | x8 | (F2 =EE F2) x2 | %14
 x8 | x8 | x8 | x6 |] %18
V:3
 [B,,B,][B,,B,] | [B,,F,][B,,F,][B,,F,][B,,F,] F,[F,B,][F,A,]F, | [B,,F,]6 [D,B,]>[D,B,] | %3
 [F,A,][F,A,][F,A,][F,A,] [F,A,][F,A,][G,B,][F,A,] | B,6 [D,B,][D,B,] | %5
 [E,E][E,E][E,E][E,E] [E,E][E,E][E,B,][G,B,] | B,6 [B,,B,][B,,B,] | %7
 [E,B,]<[E,B,] [E,E][E,E] [F,D]2 [F,C][F,C] | [B,,B,]6 || B,>[B,C] | %10
 [B,D]<[B,D] [F,B,][^F,A,] [G,B,]2 [E,B,][E,B,] | (B,2 (3G,G,G, F,2) [B,,B,]2 | %12
 [B,,D]<[B,,D] [B,,B,][C,A,] [D,B,]2 [B,,B,][B,,B,] | ([F,A,]2 [C,G,][C,G,] [F,A,]2) [D,B,][D,B,] | %14
 [E,G,][E,G,][E,G,][E,B,] [E,B,]2 [E,B,][E,B,] | %15
 [B,,B,][B,,B,][B,,B,][B,,F,] [B,,B,]2 [B,,B,][B,,B,] | %16
 [E,B,]<[E,B,] [E,E][E,E] [F,D]2 [F,C][F,C] | [B,,B,]6 |] %18
V:4
 x2 | x4 F, x F, x | x8 | x8 | B,6 x2 | x8 | B,6 x2 | x8 | x6 || B,3/2 x/ | x8 | B,,6 x2 | x8 | %13
 x8 | x8 | x8 | x8 | x6 |] %18

